X:1
T:Maitland, CM
T:George Nelson Allen, 1844 
T:Maitland, CM
T:Public Domain
C:George Nelson Allen, 1844
Z:Public Domain
%%score ( 1 2 ) ( 3 4 )
L:1/8
M:6/4
K:Ab
V:1 treble 
V:2 treble 
V:3 bass 
V:4 bass 
V:1
 ([A,C][B,D]) | [CE]4 [CE]2 [CA]4 [Ec]2 | [DB]4 [DA]2 ([DF] [FA]3) [DF]2 | E4 [B,E]2 [EA]4 [Ec]2 | %4
 [EB-]6 [EB]4 (cd) | [Ee]4 [Ec]2 [CA]4 [Ec]2 | [DB]4 [DA]2 ([DF-] [FA]3) [DF]2 | %7
 E4 [CA]2 [Ec]4 [DB]2 | [CA]6- [CA]4 |] %9
V:2
 x2 | x12 | x12 | E4 x8 | x10 E2 | x12 | x12 | E4 x8 | x10 |] %9
V:3
 [A,,A,]2 | [A,,A,]4 [A,,A,]2 [A,,E,]4 [A,,A,]2 | [D,F,]4 [D,F,]2 [D,A,]4 [D,A,]2 | %3
 [C,A,]4 (E,D,) [C,A,]4 [A,,A,]2 | [E,G,-]6 [E,G,]4 (A,B,) | [A,C]4 A,2 [A,,E,]4 [A,,A,]2 | %6
 [D,F,]4 [D,F,]2 [D,A,]4 [D,A,]2 | [C,A,]4 [A,,A,]2 [E,A,]4 [E,G,]2 | [A,,A,]6- [A,,A,]4 |] %9
V:4
 x2 | x12 | x12 | x4 G,2 x6 | x10 A,2 | x4 A,2 x6 | x12 | x12 | x10 |] %9

